(Exported by FreeCAD)
(Post Processor: grbl_post)
(Output Time:2024-12-13 18:29:06.200643)
(Begin preamble)
G17 G90
G21
(Begin operation: Fixture)
(Path: Fixture)
G54
(Finish operation: Fixture)
(Begin operation: quarter_inch_Endmill001)
(Path: quarter_inch_Endmill001)
(quarter_inch_Endmill001)
(Begin toolchange)
( M6 T1 )
M3 S10000
(Finish operation: quarter_inch_Endmill001)
(Begin operation: Pocket_Shape001)
(Path: Pocket_Shape001)
(Pocket_Shape001)
G0 Z20.875
G0 X393.700 Y3.175
G0 Z18.875
G1 X393.700 Y3.175 Z14.225 F7500.000
G1 X393.700 Y11.257 Z14.225 F7500.000
G1 X385.618 Y3.175 Z14.225 F7500.000
G1 X377.536 Y3.175 Z14.225 F7500.000
G1 X393.700 Y19.339 Z14.225 F7500.000
G1 X393.700 Y27.422 Z14.225 F7500.000
G1 X369.453 Y3.175 Z14.225 F7500.000
G1 X361.371 Y3.175 Z14.225 F7500.000
G1 X393.700 Y35.504 Z14.225 F7500.000
G1 X393.700 Y43.586 Z14.225 F7500.000
G1 X353.289 Y3.175 Z14.225 F7500.000
G1 X345.207 Y3.175 Z14.225 F7500.000
G1 X393.700 Y51.668 Z14.225 F7500.000
G1 X393.700 Y59.751 Z14.225 F7500.000
G1 X337.124 Y3.175 Z14.225 F7500.000
G1 X329.042 Y3.175 Z14.225 F7500.000
G1 X393.700 Y67.833 Z14.225 F7500.000
G1 X393.700 Y75.915 Z14.225 F7500.000
G1 X320.960 Y3.175 Z14.225 F7500.000
G1 X312.878 Y3.175 Z14.225 F7500.000
G1 X393.700 Y83.997 Z14.225 F7500.000
G1 X393.700 Y92.080 Z14.225 F7500.000
G1 X304.795 Y3.175 Z14.225 F7500.000
G1 X296.713 Y3.175 Z14.225 F7500.000
G1 X393.700 Y100.162 Z14.225 F7500.000
G1 X393.700 Y108.244 Z14.225 F7500.000
G1 X288.631 Y3.175 Z14.225 F7500.000
G1 X280.549 Y3.175 Z14.225 F7500.000
G1 X393.700 Y116.326 Z14.225 F7500.000
G1 X393.700 Y124.408 Z14.225 F7500.000
G1 X272.467 Y3.175 Z14.225 F7500.000
G1 X264.384 Y3.175 Z14.225 F7500.000
G1 X393.700 Y132.491 Z14.225 F7500.000
G1 X393.700 Y140.573 Z14.225 F7500.000
G1 X256.302 Y3.175 Z14.225 F7500.000
G1 X248.220 Y3.175 Z14.225 F7500.000
G1 X393.700 Y148.655 Z14.225 F7500.000
G1 X393.700 Y149.225 Z14.225 F7500.000
G1 X386.188 Y149.225 Z14.225 F7500.000
G1 X240.138 Y3.175 Z14.225 F7500.000
G1 X232.055 Y3.175 Z14.225 F7500.000
G1 X378.105 Y149.225 Z14.225 F7500.000
G1 X370.023 Y149.225 Z14.225 F7500.000
G1 X223.973 Y3.175 Z14.225 F7500.000
G1 X215.891 Y3.175 Z14.225 F7500.000
G1 X361.941 Y149.225 Z14.225 F7500.000
G1 X353.859 Y149.225 Z14.225 F7500.000
G1 X207.809 Y3.175 Z14.225 F7500.000
G1 X199.726 Y3.175 Z14.225 F7500.000
G1 X345.776 Y149.225 Z14.225 F7500.000
G1 X337.694 Y149.225 Z14.225 F7500.000
G1 X191.644 Y3.175 Z14.225 F7500.000
G1 X183.562 Y3.175 Z14.225 F7500.000
G1 X329.612 Y149.225 Z14.225 F7500.000
G1 X321.530 Y149.225 Z14.225 F7500.000
G1 X175.480 Y3.175 Z14.225 F7500.000
G1 X167.398 Y3.175 Z14.225 F7500.000
G1 X313.448 Y149.225 Z14.225 F7500.000
G1 X305.365 Y149.225 Z14.225 F7500.000
G1 X159.315 Y3.175 Z14.225 F7500.000
G1 X151.233 Y3.175 Z14.225 F7500.000
G1 X297.283 Y149.225 Z14.225 F7500.000
G1 X289.201 Y149.225 Z14.225 F7500.000
G1 X143.151 Y3.175 Z14.225 F7500.000
G1 X135.069 Y3.175 Z14.225 F7500.000
G1 X281.119 Y149.225 Z14.225 F7500.000
G1 X273.036 Y149.225 Z14.225 F7500.000
G1 X126.986 Y3.175 Z14.225 F7500.000
G1 X118.904 Y3.175 Z14.225 F7500.000
G1 X264.954 Y149.225 Z14.225 F7500.000
G1 X256.872 Y149.225 Z14.225 F7500.000
G1 X110.822 Y3.175 Z14.225 F7500.000
G1 X102.740 Y3.175 Z14.225 F7500.000
G1 X248.790 Y149.225 Z14.225 F7500.000
G1 X240.707 Y149.225 Z14.225 F7500.000
G1 X94.657 Y3.175 Z14.225 F7500.000
G1 X86.575 Y3.175 Z14.225 F7500.000
G1 X232.625 Y149.225 Z14.225 F7500.000
G1 X224.543 Y149.225 Z14.225 F7500.000
G1 X78.493 Y3.175 Z14.225 F7500.000
G1 X70.411 Y3.175 Z14.225 F7500.000
G1 X216.461 Y149.225 Z14.225 F7500.000
G1 X208.379 Y149.225 Z14.225 F7500.000
G1 X62.329 Y3.175 Z14.225 F7500.000
G1 X54.246 Y3.175 Z14.225 F7500.000
G1 X200.296 Y149.225 Z14.225 F7500.000
G1 X192.214 Y149.225 Z14.225 F7500.000
G1 X46.164 Y3.175 Z14.225 F7500.000
G1 X41.275 Y3.175 Z14.225 F7500.000
G1 X41.275 Y6.368 Z14.225 F7500.000
G1 X184.132 Y149.225 Z14.225 F7500.000
G1 X176.050 Y149.225 Z14.225 F7500.000
G1 X41.275 Y14.450 Z14.225 F7500.000
G1 X41.275 Y22.533 Z14.225 F7500.000
G1 X167.967 Y149.225 Z14.225 F7500.000
G1 X159.885 Y149.225 Z14.225 F7500.000
G1 X41.275 Y30.615 Z14.225 F7500.000
G1 X41.275 Y38.697 Z14.225 F7500.000
G1 X151.803 Y149.225 Z14.225 F7500.000
G1 X143.721 Y149.225 Z14.225 F7500.000
G1 X41.275 Y46.779 Z14.225 F7500.000
G1 X41.275 Y54.862 Z14.225 F7500.000
G1 X135.638 Y149.225 Z14.225 F7500.000
G1 X127.556 Y149.225 Z14.225 F7500.000
G1 X41.275 Y62.944 Z14.225 F7500.000
G1 X41.275 Y71.026 Z14.225 F7500.000
G1 X119.474 Y149.225 Z14.225 F7500.000
G1 X111.392 Y149.225 Z14.225 F7500.000
G1 X41.275 Y79.108 Z14.225 F7500.000
G1 X41.275 Y87.190 Z14.225 F7500.000
G1 X103.310 Y149.225 Z14.225 F7500.000
G1 X95.227 Y149.225 Z14.225 F7500.000
G1 X41.275 Y95.273 Z14.225 F7500.000
G1 X41.275 Y103.355 Z14.225 F7500.000
G1 X87.145 Y149.225 Z14.225 F7500.000
G1 X79.063 Y149.225 Z14.225 F7500.000
G1 X41.275 Y111.437 Z14.225 F7500.000
G1 X41.275 Y119.519 Z14.225 F7500.000
G1 X70.981 Y149.225 Z14.225 F7500.000
G1 X62.898 Y149.225 Z14.225 F7500.000
G1 X41.275 Y127.602 Z14.225 F7500.000
G1 X41.275 Y135.684 Z14.225 F7500.000
G1 X54.816 Y149.225 Z14.225 F7500.000
G1 X46.734 Y149.225 Z14.225 F7500.000
G1 X41.275 Y143.766 Z14.225 F7500.000
G1 X41.275 Y149.225 Z14.225 F7500.000
G1 X46.734 Y149.225 Z14.225 F7500.000
G0 Z20.875
G0 Z20.875
(Finish operation: Pocket_Shape001)
(Begin operation: Pocket_Shape)
(Path: Pocket_Shape)
(Pocket_Shape)
G0 Z20.875
G0 X393.700 Y3.175
G0 Z18.875
G1 X393.700 Y3.175 Z14.225 F7500.000
G1 X393.700 Y149.225 Z14.225 F7500.000
G1 X388.620 Y149.225 Z14.225 F7500.000
G1 X388.620 Y3.175 Z14.225 F7500.000
G1 X383.540 Y3.175 Z14.225 F7500.000
G1 X383.540 Y149.225 Z14.225 F7500.000
G1 X378.460 Y149.225 Z14.225 F7500.000
G1 X378.460 Y3.175 Z14.225 F7500.000
G1 X373.380 Y3.175 Z14.225 F7500.000
G1 X373.380 Y149.225 Z14.225 F7500.000
G1 X368.300 Y149.225 Z14.225 F7500.000
G1 X368.300 Y3.175 Z14.225 F7500.000
G1 X363.220 Y3.175 Z14.225 F7500.000
G1 X363.220 Y149.225 Z14.225 F7500.000
G1 X358.140 Y149.225 Z14.225 F7500.000
G1 X358.140 Y3.175 Z14.225 F7500.000
G1 X353.060 Y3.175 Z14.225 F7500.000
G1 X353.060 Y149.225 Z14.225 F7500.000
G1 X347.980 Y149.225 Z14.225 F7500.000
G1 X347.980 Y3.175 Z14.225 F7500.000
G1 X342.900 Y3.175 Z14.225 F7500.000
G1 X342.900 Y149.225 Z14.225 F7500.000
G1 X337.820 Y149.225 Z14.225 F7500.000
G1 X337.820 Y3.175 Z14.225 F7500.000
G1 X332.740 Y3.175 Z14.225 F7500.000
G1 X332.740 Y149.225 Z14.225 F7500.000
G1 X327.660 Y149.225 Z14.225 F7500.000
G1 X327.660 Y3.175 Z14.225 F7500.000
G1 X322.580 Y3.175 Z14.225 F7500.000
G1 X322.580 Y149.225 Z14.225 F7500.000
G1 X317.500 Y149.225 Z14.225 F7500.000
G1 X317.500 Y3.175 Z14.225 F7500.000
G1 X312.420 Y3.175 Z14.225 F7500.000
G1 X312.420 Y149.225 Z14.225 F7500.000
G1 X307.340 Y149.225 Z14.225 F7500.000
G1 X307.340 Y3.175 Z14.225 F7500.000
G1 X302.260 Y3.175 Z14.225 F7500.000
G1 X302.260 Y149.225 Z14.225 F7500.000
G1 X297.180 Y149.225 Z14.225 F7500.000
G1 X297.180 Y3.175 Z14.225 F7500.000
G1 X292.100 Y3.175 Z14.225 F7500.000
G1 X292.100 Y149.225 Z14.225 F7500.000
G1 X287.020 Y149.225 Z14.225 F7500.000
G1 X287.020 Y3.175 Z14.225 F7500.000
G1 X281.940 Y3.175 Z14.225 F7500.000
G1 X281.940 Y149.225 Z14.225 F7500.000
G1 X276.860 Y149.225 Z14.225 F7500.000
G1 X276.860 Y3.175 Z14.225 F7500.000
G1 X271.780 Y3.175 Z14.225 F7500.000
G1 X271.780 Y149.225 Z14.225 F7500.000
G1 X266.700 Y149.225 Z14.225 F7500.000
G1 X266.700 Y3.175 Z14.225 F7500.000
G1 X261.620 Y3.175 Z14.225 F7500.000
G1 X261.620 Y149.225 Z14.225 F7500.000
G1 X256.540 Y149.225 Z14.225 F7500.000
G1 X256.540 Y3.175 Z14.225 F7500.000
G1 X251.460 Y3.175 Z14.225 F7500.000
G1 X251.460 Y149.225 Z14.225 F7500.000
G1 X246.380 Y149.225 Z14.225 F7500.000
G1 X246.380 Y3.175 Z14.225 F7500.000
G1 X241.300 Y3.175 Z14.225 F7500.000
G1 X241.300 Y149.225 Z14.225 F7500.000
G1 X236.220 Y149.225 Z14.225 F7500.000
G1 X236.220 Y3.175 Z14.225 F7500.000
G1 X231.140 Y3.175 Z14.225 F7500.000
G1 X231.140 Y149.225 Z14.225 F7500.000
G1 X226.060 Y149.225 Z14.225 F7500.000
G1 X226.060 Y3.175 Z14.225 F7500.000
G1 X220.980 Y3.175 Z14.225 F7500.000
G1 X220.980 Y149.225 Z14.225 F7500.000
G1 X215.900 Y149.225 Z14.225 F7500.000
G1 X215.900 Y3.175 Z14.225 F7500.000
G1 X210.820 Y3.175 Z14.225 F7500.000
G1 X210.820 Y149.225 Z14.225 F7500.000
G1 X205.740 Y149.225 Z14.225 F7500.000
G1 X205.740 Y3.175 Z14.225 F7500.000
G1 X200.660 Y3.175 Z14.225 F7500.000
G1 X200.660 Y149.225 Z14.225 F7500.000
G1 X195.580 Y149.225 Z14.225 F7500.000
G1 X195.580 Y3.175 Z14.225 F7500.000
G1 X190.500 Y3.175 Z14.225 F7500.000
G1 X190.500 Y149.225 Z14.225 F7500.000
G1 X185.420 Y149.225 Z14.225 F7500.000
G1 X185.420 Y3.175 Z14.225 F7500.000
G1 X180.340 Y3.175 Z14.225 F7500.000
G1 X180.340 Y149.225 Z14.225 F7500.000
G1 X175.260 Y149.225 Z14.225 F7500.000
G1 X175.260 Y3.175 Z14.225 F7500.000
G1 X170.180 Y3.175 Z14.225 F7500.000
G1 X170.180 Y149.225 Z14.225 F7500.000
G1 X165.100 Y149.225 Z14.225 F7500.000
G1 X165.100 Y3.175 Z14.225 F7500.000
G1 X160.020 Y3.175 Z14.225 F7500.000
G1 X160.020 Y149.225 Z14.225 F7500.000
G1 X154.940 Y149.225 Z14.225 F7500.000
G1 X154.940 Y3.175 Z14.225 F7500.000
G1 X149.860 Y3.175 Z14.225 F7500.000
G1 X149.860 Y149.225 Z14.225 F7500.000
G1 X144.780 Y149.225 Z14.225 F7500.000
G1 X144.780 Y3.175 Z14.225 F7500.000
G1 X139.700 Y3.175 Z14.225 F7500.000
G1 X139.700 Y149.225 Z14.225 F7500.000
G1 X134.620 Y149.225 Z14.225 F7500.000
G1 X134.620 Y3.175 Z14.225 F7500.000
G1 X129.540 Y3.175 Z14.225 F7500.000
G1 X129.540 Y149.225 Z14.225 F7500.000
G1 X124.460 Y149.225 Z14.225 F7500.000
G1 X124.460 Y3.175 Z14.225 F7500.000
G1 X119.380 Y3.175 Z14.225 F7500.000
G1 X119.380 Y149.225 Z14.225 F7500.000
G1 X114.300 Y149.225 Z14.225 F7500.000
G1 X114.300 Y3.175 Z14.225 F7500.000
G1 X109.220 Y3.175 Z14.225 F7500.000
G1 X109.220 Y149.225 Z14.225 F7500.000
G1 X104.140 Y149.225 Z14.225 F7500.000
G1 X104.140 Y3.175 Z14.225 F7500.000
G1 X99.060 Y3.175 Z14.225 F7500.000
G1 X99.060 Y149.225 Z14.225 F7500.000
G1 X93.980 Y149.225 Z14.225 F7500.000
G1 X93.980 Y3.175 Z14.225 F7500.000
G1 X88.900 Y3.175 Z14.225 F7500.000
G1 X88.900 Y149.225 Z14.225 F7500.000
G1 X83.820 Y149.225 Z14.225 F7500.000
G1 X83.820 Y3.175 Z14.225 F7500.000
G1 X78.740 Y3.175 Z14.225 F7500.000
G1 X78.740 Y149.225 Z14.225 F7500.000
G1 X73.660 Y149.225 Z14.225 F7500.000
G1 X73.660 Y3.175 Z14.225 F7500.000
G1 X68.580 Y3.175 Z14.225 F7500.000
G1 X68.580 Y149.225 Z14.225 F7500.000
G1 X63.500 Y149.225 Z14.225 F7500.000
G1 X63.500 Y3.175 Z14.225 F7500.000
G1 X58.420 Y3.175 Z14.225 F7500.000
G1 X58.420 Y149.225 Z14.225 F7500.000
G1 X53.340 Y149.225 Z14.225 F7500.000
G1 X53.340 Y3.175 Z14.225 F7500.000
G1 X48.260 Y3.175 Z14.225 F7500.000
G1 X48.260 Y149.225 Z14.225 F7500.000
G1 X43.180 Y149.225 Z14.225 F7500.000
G1 X43.180 Y3.175 Z14.225 F7500.000
G1 X41.275 Y3.175 Z14.225 F7500.000
G1 X41.275 Y149.225 Z14.225 F7500.000
G1 X43.180 Y149.225 Z14.225 F7500.000
G0 Z20.875
G0 Z20.875
(Finish operation: Pocket_Shape)
(Begin postamble)
M5
G17 G90
M2
